X:1
T:Title
%%score { ( 1 4 ) | ( 2 3 ) }
L:1/8
M:6/8
K:Bb
V:1 treble nm="Grand Piano"
V:4 treble 
V:2 bass 
V:3 bass 
V:1
 z3 z2[Q:1/4=100] [DF] | [Fd]2 [DB] [DF]2 D | E3 G2 [Gc] | A2 A AGA | [DB]3- [DB]2 [DF] | %5
 [Fd]2 [DB] [B,DF]2[K:bass] [F,B,D] | [G,B,E]3[K:treble] [B,EG]2 [EGc] | [CFA]2 [CFA] [CA]Bc | %8
 [DB]3- [DB]2 [FB] | A2 A AGA | [DB]3 [DF]2 [DF] | [EG]2 [DB] [=Ec]2 [EB] | [FA]3- [FA]2 [Fe] | %13
 [Fd]2 [DB] [DF]2 D | E3 G2 [Gc] | [FA]2 [CFA] [CA]Bc |[M:5/8] [DB]-[DB]- [DB]3 |[M:1/8] [DB] | %18
[M:3/4] A4 z2 | [DB]3 [DF]2 [DF] | [EG]2 [EB] [=Ec]2 [EB] | [FA]4- [FA][Fe] | [Fd]2 [DB] [DF]2 D | %23
 E2 E G2 [Gc] | A2 AA Bc |[M:5/8] [DB]-[DB]- [DB]3 |] %26
V:2
 z3 z2 [B,,B,] | [B,,B,]2 [B,,F,] [B,,B,]2 [B,,F,B,] | [E,G,B,]3 [E,B,E]2 [E,E] | %3
 [F,CF]2 [F,CF] [F,CF]2 [F,E] | [B,,F,]3- [B,,F,]2 [B,,B,] | [B,,B,]2 [B,,F,] B,,2 B,, | %6
 E,3 E,2 E, | F,2 F, z D[F,E] | [B,,F,]3- [B,,F,]2 [D,B,] | [F,CF]2 [F,CF] [F,CF]2 [F,E] | %10
 [B,,F,]3 [B,,B,]2 [B,,B,] | [E,B,]2 [E,G,] [C,G,]2 [C,C] | [F,C]3- [F,C]2 [F,A,] | %13
 [B,,B,]2 [B,,F,] [B,,B,]2 [B,,F,B,] | [E,G,B,]3 [E,B,E]2 [E,E] | [F,C]2 F, z D[F,E] | %16
[M:5/8] [B,,F,]-[B,,F,]- [B,,F,]3 |[M:1/8] [B,,F,] |[M:3/4] [F,C]2 .F,2 D[F,E] | %19
 [B,,F,]3 [B,,B,]2 [B,,B,] | [E,B,]2 [E,G,] [C,G,]2 [C,C] | [F,C]4- [F,C][F,A,] | %22
 [B,,B,]2 [B,,F,] [B,,B,]2 [B,,F,B,] | [E,G,B,]2 [E,G,B,] [E,B,E]2 [E,E] | [F,CF]2 [F,CF]C D[F,E] | %25
[M:5/8] [B,,F,]-[B,,F,]- [B,,F,]3 |] %26
V:3
 x6 | x6 | x6 | x6 | x6 | x6 | x6 | z3 .F,3 | x6 | x6 | x6 | x6 | x6 | x6 | x6 | z3 .F,3 | %16
[M:5/8] x5 |[M:1/8] x |[M:3/4] z2 z .F,3 | x6 | x6 | x6 | x6 | x6 | z2 z .F,3 |[M:5/8] x5 |] %26
V:4
 x6 | x6 | x6 | x6 | x6 | x5[K:bass] x | x3[K:treble] x3 | x6 | x6 | x6 | x6 | x6 | x6 | x6 | x6 | %15
 x6 |[M:5/8] x5 |[M:1/8] x |[M:3/4] z2 CC Bc | x6 | x6 | x6 | x6 | x6 | x6 |[M:5/8] x5 |] %26

